report_00007_2020-12-11T15:55:29.892Z/network-rtt/comparison/line/3_vs_4.svg

<svg width="640" height="500" xmlns="http://www.w3.org/2000/svg" xmlns:xlink="http://www.w3.org/1999/xlink"><path fill="#fff" d="M0 0h640v500H0z"/><defs><path id="d" stroke-width=".222" stroke="currentColor" d="M-1-1h2v2h-2z"/><path id="b" stroke-width=".222" stroke="currentColor" d="M0-1.33l-1.33 2h2.66z"/><path id="f" stroke-width=".222" stroke="currentColor" d="M0 1.33L1.265.411.782-1.067l-1.564-.009-.483 1.487z"/><use xlink:href="#b" id="c" stroke="currentColor" transform="rotate(180)"/><use xlink:href="#d" id="e" stroke="currentColor" transform="rotate(45)"/><circle id="a" stroke-width=".222" stroke="currentColor" cx="0" cy="0" r="1"/></defs><g fill="none" color="#000" stroke="currentColor"><path stroke="#000" d="M62.2 428.1h9m543.8 0h-9"/><text transform="translate(53.9 432)" stroke="none" fill="#000" font-family="Arial" font-size="12" text-anchor="end"><tspan>0.05</tspan></text></g><g fill="none" color="#000" stroke="currentColor"><path stroke="#000" d="M62.2 382h9m543.8 0h-9"/><text transform="translate(53.9 385.9)" stroke="none" fill="#000" font-family="Arial" font-size="12" text-anchor="end"><tspan>0.1</tspan></text></g><g fill="none" color="#000" stroke="currentColor"><path stroke="#000" d="M62.2 335.9h9m543.8 0h-9"/><text transform="translate(53.9 339.8)" stroke="none" fill="#000" font-family="Arial" font-size="12" text-anchor="end"><tspan>0.15</tspan></text></g><g fill="none" color="#000" stroke="currentColor"><path stroke="#000" d="M62.2 289.9h9m543.8 0h-9"/><text transform="translate(53.9 293.8)" stroke="none" fill="#000" font-family="Arial" font-size="12" text-anchor="end"><tspan>0.2</tspan></text></g><g fill="none" color="#000" stroke="currentColor"><path stroke="#000" d="M62.2 243.8h9m543.8 0h-9"/><text transform="translate(53.9 247.7)" stroke="none" fill="#000" font-family="Arial" font-size="12" text-anchor="end"><tspan>0.25</tspan></text></g><g fill="none" color="#000" stroke="currentColor"><path stroke="#000" d="M62.2 197.7h9m543.8 0h-9"/><text transform="translate(53.9 201.6)" stroke="none" fill="#000" font-family="Arial" font-size="12" text-anchor="end"><tspan>0.3</tspan></text></g><g fill="none" color="#000" stroke="currentColor"><path stroke="#000" d="M62.2 151.7h9m543.8 0h-9"/><text transform="translate(53.9 155.6)" stroke="none" fill="#000" font-family="Arial" font-size="12" text-anchor="end"><tspan>0.35</tspan></text></g><g fill="none" color="#000" stroke="currentColor"><path stroke="#000" d="M62.2 105.6h9m543.8 0h-9"/><text transform="translate(53.9 109.5)" stroke="none" fill="#000" font-family="Arial" font-size="12" text-anchor="end"><tspan>0.4</tspan></text></g><g fill="none" color="#000" stroke="currentColor"><path stroke="#000" d="M62.2 59.5h9m543.8 0h-9"/><text transform="translate(53.9 63.4)" stroke="none" fill="#000" font-family="Arial" font-size="12" text-anchor="end"><tspan>0.45</tspan></text></g><g fill="none" color="#000" stroke="currentColor"><path stroke="#000" d="M62.2 446v-9m0-418.9v9"/><text transform="translate(62.2 467.9)" stroke="none" fill="#000" font-family="Arial" font-size="12" text-anchor="middle"><tspan>0</tspan></text></g><g fill="none" color="#000" stroke="currentColor"><path stroke="#000" d="M118 446v-9m0-418.9v9"/><text transform="translate(118 467.9)" stroke="none" fill="#000" font-family="Arial" font-size="12" text-anchor="middle"><tspan>10</tspan></text></g><g fill="none" color="#000" stroke="currentColor"><path stroke="#000" d="M173.9 446v-9m0-418.9v9"/><text transform="translate(173.9 467.9)" stroke="none" fill="#000" font-family="Arial" font-size="12" text-anchor="middle"><tspan>20</tspan></text></g><g fill="none" color="#000" stroke="currentColor"><path stroke="#000" d="M229.7 446v-9m0-418.9v9"/><text transform="translate(229.7 467.9)" stroke="none" fill="#000" font-family="Arial" font-size="12" text-anchor="middle"><tspan>30</tspan></text></g><g fill="none" color="#000" stroke="currentColor"><path stroke="#000" d="M285.6 446v-9m0-418.9v9"/><text transform="translate(285.6 467.9)" stroke="none" fill="#000" font-family="Arial" font-size="12" text-anchor="middle"><tspan>40</tspan></text></g><g fill="none" color="#000" stroke="currentColor"><path stroke="#000" d="M341.4 446v-9m0-418.9v9"/><text transform="translate(341.4 467.9)" stroke="none" fill="#000" font-family="Arial" font-size="12" text-anchor="middle"><tspan>50</tspan></text></g><g fill="none" color="#000" stroke="currentColor"><path stroke="#000" d="M397.2 446v-9m0-418.9v9"/><text transform="translate(397.2 467.9)" stroke="none" fill="#000" font-family="Arial" font-size="12" text-anchor="middle"><tspan>60</tspan></text></g><g fill="none" color="#000" stroke="currentColor"><path stroke="#000" d="M453.1 446v-9m0-418.9v9"/><text transform="translate(453.1 467.9)" stroke="none" fill="#000" font-family="Arial" font-size="12" text-anchor="middle"><tspan>70</tspan></text></g><g fill="none" color="#000" stroke="currentColor"><path stroke="#000" d="M508.9 446v-9m0-418.9v9"/><text transform="translate(508.9 467.9)" stroke="none" fill="#000" font-family="Arial" font-size="12" text-anchor="middle"><tspan>80</tspan></text></g><g fill="none" color="#000" stroke="currentColor"><path stroke="#000" d="M564.7 446v-9m0-418.9v9"/><text transform="translate(564.7 467.9)" stroke="none" fill="#000" font-family="Arial" font-size="12" text-anchor="middle"><tspan>90</tspan></text></g><path stroke="#000" d="M62.2 18.1V446H615V18.1H62.2z" fill="none" color="#000"/><text transform="translate(279.8 485.9)" stroke="none" fill="#000" font-family="Arial" font-size="12" text-anchor="end" color="#000"><tspan>pages+cached+nointeractive</tspan></text><path stroke="#9400D3" d="M288.1 482h42.2M62.2 249.3l5.6-42.9 5.6-37.6 5.6-49.5 5.5-45.6 5.6 69.3 5.6 191.8 5.6-221 5.6 171.9 5.6-109.1 5.5 22.6 5.6-82.1 5.6 44.4 5.6 5.6 5.6-61.4 5.6 29.6 5.5-34.6 5.6 129.8 5.6-9.4 5.6 20.2 5.6-73.2 5.6 48.1 5.5 4.5 5.6 107.6 5.6-141.4 5.6 35.1 5.6-81.3 5.6 169.2 5.5-186.9 5.6 36.9 5.6-11.3 5.6 10.3 5.6-8.7 5.6 185.4 5.6-202.7 5.5 20.4 5.6-25.4 5.6-21.2 5.6 36.9 5.6-43.5 5.6 23.7 5.5 16.2 5.6-22.2 5.6-36.6 5.6 116 5.6-35.8 5.6-4.7 5.5-24.6 5.6 13.2 5.6-5.5 5.6-34.4 5.6 32.7 5.6-.9 5.5 125.1 5.6-182 5.6 22.1 5.6 152.8 5.6-126 5.6 89.3 5.5-83.1 5.6-35.9 5.6 73.8 5.6-29.3 5.6 136.8 5.6-51.3 5.5-16.2 5.6-85.1 5.6 109.7 5.6-113.4 5.6-98.2 5.6 123.3 5.6-37.7 5.5 30.5 5.6 200.3 5.6-77.2 5.6-164.9 5.6 35.3 5.6 7.7 5.5 141.3 5.6-84.4 5.6-13.4 5.6 39.4 5.6-78.6 5.6-39.2 5.5 88 5.6-90.7 5.6-7.2 5.6 229.8 5.6-187.5 5.6-12.9 5.5 79.5 5.6 173.3 5.6-250.5 5.6-19.7 5.6 95.9 5.6-49.3 5.5 47.9 5.6-89.9 5.6 41.5 5.6 61.9" fill="none" color="#000"/><text transform="translate(554.4 485.9)" stroke="none" fill="#000" font-family="Arial" font-size="12" text-anchor="end" color="#000"><tspan>pages+cached+noadtech</tspan></text><path stroke="#009E73" d="M562.7 482h42.2M62.2 399l5.6 18.8 5.6 3.7 5.6-10.6 5.5 5.2 5.6-15.6 5.6 17 5.6 13.4 5.6-4.5 5.6-19.4 5.5-3 5.6 10.7 5.6 4.5 5.6-15.8 5.6 8.3 5.6-23.4 5.5-7 5.6 35.4 5.6-18.4 5.6 22.1 5.6-9.4 5.6 8.9 5.5-45.7 5.6 30.5 5.6-26 5.6 4.2 5.6 36 5.6-5.1 5.5-2.6 5.6-34.7 5.6 33.9 5.6 3.2 5.6-7.5 5.6-.1 5.6 3.5 5.5-10.3 5.6 12.1 5.6-3.8 5.6 21.9 5.6-7.1 5.6-9.5 5.5 8.8 5.6-11.8 5.6-52.5 5.6 65.2 5.6 1.4 5.6-6.2 5.5-12.2 5.6-5.7 5.6 11.6 5.6-30.2 5.6 36.3 5.6-4.1 5.5-52.1 5.6 71.8 5.6-6.8 5.6-14.9 5.6-14.8 5.6 18.3 5.5-.6 5.6 23.5 5.6-14.8 5.6-91.2L414 426l5.6-8.5 5.5-80.6 5.6 88.4 5.6-4.4 5.6-7.7 5.6 16.9 5.6-19.8 5.6-.3 5.5 3.6 5.6-92.9 5.6 93.7L481 402l5.6 1.8 5.6 9 5.5-28.3 5.6 28.9 5.6-10.6 5.6-13.3 5.6 26.6 5.6-11.6 5.5 15.6 5.6-88.9 5.6 62.6 5.6 19.5 5.6-4.6 5.6 10.8 5.5-8.5 5.6-8.7 5.6 15.7 5.6 2.5 5.6-1.3 5.6-88.7 5.5 58 5.6-39 5.6 67 5.6 6.2" fill="none" color="#000"/><g fill="none" color="#000" stroke="currentColor"><path stroke="#000" d="M62.2 18.1V446H615V18.1H62.2z"/></g></svg>

<?xml version="1.0" encoding="utf-8"  standalone="no"?>
<svg 
 width="640" height="500"
 viewBox="0 0 640 500"
 xmlns="http://www.w3.org/2000/svg"
 xmlns:xlink="http://www.w3.org/1999/xlink"
>

<title>Gnuplot</title>
<desc>Produced by GNUPLOT 5.4 patchlevel 0 </desc>

<g id="gnuplot_canvas">

<rect x="0" y="0" width="640" height="500" fill="#ffffff"/>
<defs>

	<circle id='gpDot' r='0.5' stroke-width='0.5' stroke='currentColor'/>
	<path id='gpPt0' stroke-width='0.222' stroke='currentColor' d='M-1,0 h2 M0,-1 v2'/>
	<path id='gpPt1' stroke-width='0.222' stroke='currentColor' d='M-1,-1 L1,1 M1,-1 L-1,1'/>
	<path id='gpPt2' stroke-width='0.222' stroke='currentColor' d='M-1,0 L1,0 M0,-1 L0,1 M-1,-1 L1,1 M-1,1 L1,-1'/>
	<rect id='gpPt3' stroke-width='0.222' stroke='currentColor' x='-1' y='-1' width='2' height='2'/>
	<rect id='gpPt4' stroke-width='0.222' stroke='currentColor' fill='currentColor' x='-1' y='-1' width='2' height='2'/>
	<circle id='gpPt5' stroke-width='0.222' stroke='currentColor' cx='0' cy='0' r='1'/>
	<use xlink:href='#gpPt5' id='gpPt6' fill='currentColor' stroke='none'/>
	<path id='gpPt7' stroke-width='0.222' stroke='currentColor' d='M0,-1.33 L-1.33,0.67 L1.33,0.67 z'/>
	<use xlink:href='#gpPt7' id='gpPt8' fill='currentColor' stroke='none'/>
	<use xlink:href='#gpPt7' id='gpPt9' stroke='currentColor' transform='rotate(180)'/>
	<use xlink:href='#gpPt9' id='gpPt10' fill='currentColor' stroke='none'/>
	<use xlink:href='#gpPt3' id='gpPt11' stroke='currentColor' transform='rotate(45)'/>
	<use xlink:href='#gpPt11' id='gpPt12' fill='currentColor' stroke='none'/>
	<path id='gpPt13' stroke-width='0.222' stroke='currentColor' d='M0,1.330 L1.265,0.411 L0.782,-1.067 L-0.782,-1.076 L-1.265,0.411 z'/>
	<use xlink:href='#gpPt13' id='gpPt14' fill='currentColor' stroke='none'/>
	<filter id='textbox' filterUnits='objectBoundingBox' x='0' y='0' height='1' width='1'>
	  <feFlood flood-color='#FFFFFF' flood-opacity='1' result='bgnd'/>
	  <feComposite in='SourceGraphic' in2='bgnd' operator='atop'/>
	</filter>
	<filter id='greybox' filterUnits='objectBoundingBox' x='0' y='0' height='1' width='1'>
	  <feFlood flood-color='lightgrey' flood-opacity='1' result='grey'/>
	  <feComposite in='SourceGraphic' in2='grey' operator='atop'/>
	</filter>
</defs>
<g fill="none" color="#FFFFFF" stroke="black" stroke-width="1.00" stroke-linecap="butt" stroke-linejoin="miter">
</g>
<g fill="none" color="black" stroke="currentColor" stroke-width="1.00" stroke-linecap="butt" stroke-linejoin="miter">
	<path stroke='black'  d='M62.2,428.1 L71.2,428.1 M615.0,428.1 L606.0,428.1  '/>	<g transform="translate(53.9,432.0)" stroke="none" fill="black" font-family="Arial" font-size="12.00"  text-anchor="end">
		<text><tspan font-family="Arial" > 0.05</tspan></text>
	</g>
</g>
<g fill="none" color="black" stroke="currentColor" stroke-width="1.00" stroke-linecap="butt" stroke-linejoin="miter">
	<path stroke='black'  d='M62.2,382.0 L71.2,382.0 M615.0,382.0 L606.0,382.0  '/>	<g transform="translate(53.9,385.9)" stroke="none" fill="black" font-family="Arial" font-size="12.00"  text-anchor="end">
		<text><tspan font-family="Arial" > 0.1</tspan></text>
	</g>
</g>
<g fill="none" color="black" stroke="currentColor" stroke-width="1.00" stroke-linecap="butt" stroke-linejoin="miter">
	<path stroke='black'  d='M62.2,335.9 L71.2,335.9 M615.0,335.9 L606.0,335.9  '/>	<g transform="translate(53.9,339.8)" stroke="none" fill="black" font-family="Arial" font-size="12.00"  text-anchor="end">
		<text><tspan font-family="Arial" > 0.15</tspan></text>
	</g>
</g>
<g fill="none" color="black" stroke="currentColor" stroke-width="1.00" stroke-linecap="butt" stroke-linejoin="miter">
	<path stroke='black'  d='M62.2,289.9 L71.2,289.9 M615.0,289.9 L606.0,289.9  '/>	<g transform="translate(53.9,293.8)" stroke="none" fill="black" font-family="Arial" font-size="12.00"  text-anchor="end">
		<text><tspan font-family="Arial" > 0.2</tspan></text>
	</g>
</g>
<g fill="none" color="black" stroke="currentColor" stroke-width="1.00" stroke-linecap="butt" stroke-linejoin="miter">
	<path stroke='black'  d='M62.2,243.8 L71.2,243.8 M615.0,243.8 L606.0,243.8  '/>	<g transform="translate(53.9,247.7)" stroke="none" fill="black" font-family="Arial" font-size="12.00"  text-anchor="end">
		<text><tspan font-family="Arial" > 0.25</tspan></text>
	</g>
</g>
<g fill="none" color="black" stroke="currentColor" stroke-width="1.00" stroke-linecap="butt" stroke-linejoin="miter">
	<path stroke='black'  d='M62.2,197.7 L71.2,197.7 M615.0,197.7 L606.0,197.7  '/>	<g transform="translate(53.9,201.6)" stroke="none" fill="black" font-family="Arial" font-size="12.00"  text-anchor="end">
		<text><tspan font-family="Arial" > 0.3</tspan></text>
	</g>
</g>
<g fill="none" color="black" stroke="currentColor" stroke-width="1.00" stroke-linecap="butt" stroke-linejoin="miter">
	<path stroke='black'  d='M62.2,151.7 L71.2,151.7 M615.0,151.7 L606.0,151.7  '/>	<g transform="translate(53.9,155.6)" stroke="none" fill="black" font-family="Arial" font-size="12.00"  text-anchor="end">
		<text><tspan font-family="Arial" > 0.35</tspan></text>
	</g>
</g>
<g fill="none" color="black" stroke="currentColor" stroke-width="1.00" stroke-linecap="butt" stroke-linejoin="miter">
	<path stroke='black'  d='M62.2,105.6 L71.2,105.6 M615.0,105.6 L606.0,105.6  '/>	<g transform="translate(53.9,109.5)" stroke="none" fill="black" font-family="Arial" font-size="12.00"  text-anchor="end">
		<text><tspan font-family="Arial" > 0.4</tspan></text>
	</g>
</g>
<g fill="none" color="black" stroke="currentColor" stroke-width="1.00" stroke-linecap="butt" stroke-linejoin="miter">
	<path stroke='black'  d='M62.2,59.5 L71.2,59.5 M615.0,59.5 L606.0,59.5  '/>	<g transform="translate(53.9,63.4)" stroke="none" fill="black" font-family="Arial" font-size="12.00"  text-anchor="end">
		<text><tspan font-family="Arial" > 0.45</tspan></text>
	</g>
</g>
<g fill="none" color="black" stroke="currentColor" stroke-width="1.00" stroke-linecap="butt" stroke-linejoin="miter">
	<path stroke='black'  d='M62.2,446.0 L62.2,437.0 M62.2,18.1 L62.2,27.1  '/>	<g transform="translate(62.2,467.9)" stroke="none" fill="black" font-family="Arial" font-size="12.00"  text-anchor="middle">
		<text><tspan font-family="Arial" > 0</tspan></text>
	</g>
</g>
<g fill="none" color="black" stroke="currentColor" stroke-width="1.00" stroke-linecap="butt" stroke-linejoin="miter">
	<path stroke='black'  d='M118.0,446.0 L118.0,437.0 M118.0,18.1 L118.0,27.1  '/>	<g transform="translate(118.0,467.9)" stroke="none" fill="black" font-family="Arial" font-size="12.00"  text-anchor="middle">
		<text><tspan font-family="Arial" > 10</tspan></text>
	</g>
</g>
<g fill="none" color="black" stroke="currentColor" stroke-width="1.00" stroke-linecap="butt" stroke-linejoin="miter">
	<path stroke='black'  d='M173.9,446.0 L173.9,437.0 M173.9,18.1 L173.9,27.1  '/>	<g transform="translate(173.9,467.9)" stroke="none" fill="black" font-family="Arial" font-size="12.00"  text-anchor="middle">
		<text><tspan font-family="Arial" > 20</tspan></text>
	</g>
</g>
<g fill="none" color="black" stroke="currentColor" stroke-width="1.00" stroke-linecap="butt" stroke-linejoin="miter">
	<path stroke='black'  d='M229.7,446.0 L229.7,437.0 M229.7,18.1 L229.7,27.1  '/>	<g transform="translate(229.7,467.9)" stroke="none" fill="black" font-family="Arial" font-size="12.00"  text-anchor="middle">
		<text><tspan font-family="Arial" > 30</tspan></text>
	</g>
</g>
<g fill="none" color="black" stroke="currentColor" stroke-width="1.00" stroke-linecap="butt" stroke-linejoin="miter">
	<path stroke='black'  d='M285.6,446.0 L285.6,437.0 M285.6,18.1 L285.6,27.1  '/>	<g transform="translate(285.6,467.9)" stroke="none" fill="black" font-family="Arial" font-size="12.00"  text-anchor="middle">
		<text><tspan font-family="Arial" > 40</tspan></text>
	</g>
</g>
<g fill="none" color="black" stroke="currentColor" stroke-width="1.00" stroke-linecap="butt" stroke-linejoin="miter">
	<path stroke='black'  d='M341.4,446.0 L341.4,437.0 M341.4,18.1 L341.4,27.1  '/>	<g transform="translate(341.4,467.9)" stroke="none" fill="black" font-family="Arial" font-size="12.00"  text-anchor="middle">
		<text><tspan font-family="Arial" > 50</tspan></text>
	</g>
</g>
<g fill="none" color="black" stroke="currentColor" stroke-width="1.00" stroke-linecap="butt" stroke-linejoin="miter">
	<path stroke='black'  d='M397.2,446.0 L397.2,437.0 M397.2,18.1 L397.2,27.1  '/>	<g transform="translate(397.2,467.9)" stroke="none" fill="black" font-family="Arial" font-size="12.00"  text-anchor="middle">
		<text><tspan font-family="Arial" > 60</tspan></text>
	</g>
</g>
<g fill="none" color="black" stroke="currentColor" stroke-width="1.00" stroke-linecap="butt" stroke-linejoin="miter">
	<path stroke='black'  d='M453.1,446.0 L453.1,437.0 M453.1,18.1 L453.1,27.1  '/>	<g transform="translate(453.1,467.9)" stroke="none" fill="black" font-family="Arial" font-size="12.00"  text-anchor="middle">
		<text><tspan font-family="Arial" > 70</tspan></text>
	</g>
</g>
<g fill="none" color="black" stroke="currentColor" stroke-width="1.00" stroke-linecap="butt" stroke-linejoin="miter">
	<path stroke='black'  d='M508.9,446.0 L508.9,437.0 M508.9,18.1 L508.9,27.1  '/>	<g transform="translate(508.9,467.9)" stroke="none" fill="black" font-family="Arial" font-size="12.00"  text-anchor="middle">
		<text><tspan font-family="Arial" > 80</tspan></text>
	</g>
</g>
<g fill="none" color="black" stroke="currentColor" stroke-width="1.00" stroke-linecap="butt" stroke-linejoin="miter">
	<path stroke='black'  d='M564.7,446.0 L564.7,437.0 M564.7,18.1 L564.7,27.1  '/>	<g transform="translate(564.7,467.9)" stroke="none" fill="black" font-family="Arial" font-size="12.00"  text-anchor="middle">
		<text><tspan font-family="Arial" > 90</tspan></text>
	</g>
</g>
<g fill="none" color="black" stroke="currentColor" stroke-width="1.00" stroke-linecap="butt" stroke-linejoin="miter">
</g>
<g fill="none" color="black" stroke="currentColor" stroke-width="1.00" stroke-linecap="butt" stroke-linejoin="miter">
	<path stroke='black'  d='M62.2,18.1 L62.2,446.0 L615.0,446.0 L615.0,18.1 L62.2,18.1 Z  '/></g>
<g fill="none" color="black" stroke="currentColor" stroke-width="1.00" stroke-linecap="butt" stroke-linejoin="miter">
</g>
	<g id="gnuplot_plot_1" ><title>pages+cached+nointeractive</title>
<g fill="none" color="black" stroke="currentColor" stroke-width="1.00" stroke-linecap="butt" stroke-linejoin="miter">
	<g transform="translate(279.8,485.9)" stroke="none" fill="black" font-family="Arial" font-size="12.00"  text-anchor="end">
		<text><tspan font-family="Arial" >pages+cached+nointeractive</tspan></text>
	</g>
</g>
<g fill="none" color="black" stroke="currentColor" stroke-width="1.00" stroke-linecap="butt" stroke-linejoin="miter">
	<path stroke='rgb(148,   0, 211)'  d='M288.1,482.0 L330.3,482.0 M62.2,249.3 L67.8,206.4 L73.4,168.8 L79.0,119.3 L84.5,73.7 L90.1,143.0
		L95.7,334.8 L101.3,113.8 L106.9,285.7 L112.5,176.6 L118.0,199.2 L123.6,117.1 L129.2,161.5 L134.8,167.1
		L140.4,105.7 L146.0,135.3 L151.5,100.7 L157.1,230.5 L162.7,221.1 L168.3,241.3 L173.9,168.1 L179.5,216.2
		L185.0,220.7 L190.6,328.3 L196.2,186.9 L201.8,222.0 L207.4,140.7 L213.0,309.9 L218.5,123.0 L224.1,159.9
		L229.7,148.6 L235.3,158.9 L240.9,150.2 L246.5,335.6 L252.1,132.9 L257.6,153.3 L263.2,127.9 L268.8,106.7
		L274.4,143.6 L280.0,100.1 L285.6,123.8 L291.1,140.0 L296.7,117.8 L302.3,81.2 L307.9,197.2 L313.5,161.4
		L319.1,156.7 L324.6,132.1 L330.2,145.3 L335.8,139.8 L341.4,105.4 L347.0,138.1 L352.6,137.2 L358.1,262.3
		L363.7,80.3 L369.3,102.4 L374.9,255.2 L380.5,129.2 L386.1,218.5 L391.6,135.4 L397.2,99.5 L402.8,173.3
		L408.4,144.0 L414.0,280.8 L419.6,229.5 L425.1,213.3 L430.7,128.2 L436.3,237.9 L441.9,124.5 L447.5,26.3
		L453.1,149.6 L458.7,111.9 L464.2,142.4 L469.8,342.7 L475.4,265.5 L481.0,100.6 L486.6,135.9 L492.2,143.6
		L497.7,284.9 L503.3,200.5 L508.9,187.1 L514.5,226.5 L520.1,147.9 L525.7,108.7 L531.2,196.7 L536.8,106.0
		L542.4,98.8 L548.0,328.6 L553.6,141.1 L559.2,128.2 L564.7,207.7 L570.3,381.0 L575.9,130.5 L581.5,110.8
		L587.1,206.7 L592.7,157.4 L598.2,205.3 L603.8,115.4 L609.4,156.9 L615.0,218.8  '/></g>
	</g>
	<g id="gnuplot_plot_2" ><title>pages+cached+noadtech</title>
<g fill="none" color="black" stroke="currentColor" stroke-width="1.00" stroke-linecap="butt" stroke-linejoin="miter">
	<g transform="translate(554.4,485.9)" stroke="none" fill="black" font-family="Arial" font-size="12.00"  text-anchor="end">
		<text><tspan font-family="Arial" >pages+cached+noadtech</tspan></text>
	</g>
</g>
<g fill="none" color="black" stroke="currentColor" stroke-width="1.00" stroke-linecap="butt" stroke-linejoin="miter">
	<path stroke='rgb(  0, 158, 115)'  d='M562.7,482.0 L604.9,482.0 M62.2,399.0 L67.8,417.8 L73.4,421.5 L79.0,410.9 L84.5,416.1 L90.1,400.5
		L95.7,417.5 L101.3,430.9 L106.9,426.4 L112.5,407.0 L118.0,404.0 L123.6,414.7 L129.2,419.2 L134.8,403.4
		L140.4,411.7 L146.0,388.3 L151.5,381.3 L157.1,416.7 L162.7,398.3 L168.3,420.4 L173.9,411.0 L179.5,419.9
		L185.0,374.2 L190.6,404.7 L196.2,378.7 L201.8,382.9 L207.4,418.9 L213.0,413.8 L218.5,411.2 L224.1,376.5
		L229.7,410.4 L235.3,413.6 L240.9,406.1 L246.5,406.0 L252.1,409.5 L257.6,399.2 L263.2,411.3 L268.8,407.5
		L274.4,429.4 L280.0,422.3 L285.6,412.8 L291.1,421.6 L296.7,409.8 L302.3,357.3 L307.9,422.5 L313.5,423.9
		L319.1,417.7 L324.6,405.5 L330.2,399.8 L335.8,411.4 L341.4,381.2 L347.0,417.5 L352.6,413.4 L358.1,361.3
		L363.7,433.1 L369.3,426.3 L374.9,411.4 L380.5,396.6 L386.1,414.9 L391.6,414.3 L397.2,437.8 L402.8,423.0
		L408.4,331.8 L414.0,426.0 L419.6,417.5 L425.1,336.9 L430.7,425.3 L436.3,420.9 L441.9,413.2 L447.5,430.1
		L453.1,410.3 L458.7,410.0 L464.2,413.6 L469.8,320.7 L475.4,414.4 L481.0,402.0 L486.6,403.8 L492.2,412.8
		L497.7,384.5 L503.3,413.4 L508.9,402.8 L514.5,389.5 L520.1,416.1 L525.7,404.5 L531.2,420.1 L536.8,331.2
		L542.4,393.8 L548.0,413.3 L553.6,408.7 L559.2,419.5 L564.7,411.0 L570.3,402.3 L575.9,418.0 L581.5,420.5
		L587.1,419.2 L592.7,330.5 L598.2,388.5 L603.8,349.5 L609.4,416.5 L615.0,422.7  '/></g>
	</g>
<g fill="none" color="#FFFFFF" stroke="rgb(  0, 158, 115)" stroke-width="2.00" stroke-linecap="butt" stroke-linejoin="miter">
</g>
<g fill="none" color="black" stroke="currentColor" stroke-width="2.00" stroke-linecap="butt" stroke-linejoin="miter">
</g>
<g fill="none" color="black" stroke="black" stroke-width="1.00" stroke-linecap="butt" stroke-linejoin="miter">
</g>
<g fill="none" color="black" stroke="currentColor" stroke-width="1.00" stroke-linecap="butt" stroke-linejoin="miter">
	<path stroke='black'  d='M62.2,18.1 L62.2,446.0 L615.0,446.0 L615.0,18.1 L62.2,18.1 Z  '/></g>
<g fill="none" color="black" stroke="currentColor" stroke-width="1.00" stroke-linecap="butt" stroke-linejoin="miter">
</g>
</g>
</svg>
